archdroid-icon-theme/Archdroid-Cyan/mimetypes/scalable/text-css.svg

<svg xmlns="http://www.w3.org/2000/svg" fill="#00BCD4" viewBox="0 0 48 48"><path d="m28 4h-16c-2.21 0-3.98 1.79-3.98 4l-.02 32c0 2.21 1.77 4 3.98 4h24.02c2.21 0 4-1.79 4-4v-24l-12-12" fill="#1572b6"/><g fill="#33a9dc"><path d="m32 36h-16v-4h16v4"/><path d="m32 28h-16v-4h16v4"/><path d="m26 18v-11l11 11h-11"/></g></svg>

<?xml version="1.0" encoding="UTF-8" standalone="no"?>
<svg
   xmlns:dc="http://purl.org/dc/elements/1.1/"
   xmlns:cc="http://creativecommons.org/ns#"
   xmlns:rdf="http://www.w3.org/1999/02/22-rdf-syntax-ns#"
   xmlns:svg="http://www.w3.org/2000/svg"
   xmlns="http://www.w3.org/2000/svg"
   xmlns:sodipodi="http://sodipodi.sourceforge.net/DTD/sodipodi-0.dtd"
   xmlns:inkscape="http://www.inkscape.org/namespaces/inkscape"
   fill="#00BCD4"
   width="48"
   height="48"
   viewBox="0 0 48 48"
   id="svg2"
   version="1.1"
   inkscape:version="0.91 r13725"
   sodipodi:docname="text-css.svg">
  <metadata
     id="metadata10">
    <rdf:RDF>
      <cc:Work
         rdf:about="">
        <dc:format>image/svg+xml</dc:format>
        <dc:type
           rdf:resource="http://purl.org/dc/dcmitype/StillImage" />
        <dc:title />
      </cc:Work>
    </rdf:RDF>
  </metadata>
  <defs
     id="defs8" />
  <sodipodi:namedview
     pagecolor="#ffffff"
     bordercolor="#666666"
     borderopacity="1"
     objecttolerance="10"
     gridtolerance="10"
     guidetolerance="10"
     inkscape:pageopacity="0"
     inkscape:pageshadow="2"
     inkscape:window-width="1366"
     inkscape:window-height="713"
     id="namedview6"
     showgrid="false"
     inkscape:snap-page="true"
     inkscape:snap-bbox="true"
     inkscape:bbox-paths="true"
     inkscape:bbox-nodes="true"
     inkscape:zoom="3.089759195768081"
     inkscape:cx="-4.545964104228929"
     inkscape:cy="-17.80299904394147"
     inkscape:window-x="0"
     inkscape:window-y="30"
     inkscape:window-maximized="1"
     inkscape:current-layer="svg2" />
  <path
     style="fill:#1572b6;fill-opacity:1"
     d="M 28,4 12,4 c -2.210000000000001,0 -3.98,1.79 -3.98,4 L 8,40 c 0,2.21 1.77,4 3.98,4 L 36,44 c 2.21,0 4,-1.79 4,-4 L 40,16 28,4 Z"
     id="path4167" />
  <path
     style="fill:#33a9dc;fill-opacity:1"
     d="m 32,36 -16,0 0,-4 16,0 0,4 z"
     id="path4165" />
  <path
     style="fill:#33a9dc;fill-opacity:1"
     d="m 32,28 -16,0 0,-4 16,0 0,4 z"
     id="path4163" />
  <path
     style="fill:#33a9dc;fill-opacity:1"
     d="M 26,18 26,7 37,18 26,18 Z"
     id="path4-1" />
</svg>
